src/pos-icons/angle-obtuse.svg

<svg height="24" viewBox="0 0 24 24" width="24" xmlns="http://www.w3.org/2000/svg"><path d="m21 19h-11.69l-5.24-13.64 1.86-.72 3.03 7.86c.54-.21 1.13-.33 1.75-.33 2.67 0 4.85 2.17 4.87 4.83h5.42zm-10.31-2h2.89c-.02-1.58-1.28-2.83-2.87-2.83-.37 0-.71.07-1.04.19z"/></svg>

<?xml version="1.0" encoding="UTF-8"?><!DOCTYPE svg PUBLIC "-//W3C//DTD SVG 1.1//EN" "http://www.w3.org/Graphics/SVG/1.1/DTD/svg11.dtd"><svg xmlns="http://www.w3.org/2000/svg" xmlns:xlink="http://www.w3.org/1999/xlink" version="1.1" id="mdi-angle-obtuse" width="24" height="24" viewBox="0 0 24 24"><path d="M21,19H9.31L4.07,5.36L5.93,4.64L8.96,12.5C9.5,12.29 10.09,12.17 10.71,12.17V12.17C13.38,12.17 15.56,14.34 15.58,17H21V19M10.69,17H13.58C13.56,15.42 12.3,14.17 10.71,14.17C10.34,14.17 10,14.24 9.67,14.36L10.69,17Z" /></svg>
